assets/thin/browsers-thin.svg

<svg id="Flat" xmlns="http://www.w3.org/2000/svg" viewBox="0 0 256 256">
  <path d="M216.00781,44h-144a12.01359,12.01359,0,0,0-12,12V76h-20a12.01359,12.01359,0,0,0-12,12v23.92236C28.00732,111.949,28,111.97339,28,112s.00732.051.00781.07764V200a12.01375,12.01375,0,0,0,12,12h144a12.01375,12.01375,0,0,0,12-12V180h20a12.01375,12.01375,0,0,0,12-12V56A12.01359,12.01359,0,0,0,216.00781,44Zm-176,40h144a4.00458,4.00458,0,0,1,4,4v20h-152V88A4.00458,4.00458,0,0,1,40.00781,84Zm148,116a4.00458,4.00458,0,0,1-4,4h-144a4.00458,4.00458,0,0,1-4-4V116h152Zm32-32a4.00458,4.00458,0,0,1-4,4h-20V88a12.01359,12.01359,0,0,0-12-12h-116V56a4.00458,4.00458,0,0,1,4-4h144a4.00458,4.00458,0,0,1,4,4Z"/>
</svg>

<svg xmlns="http://www.w3.org/2000/svg" viewBox="0 0 256 256"><path d="M216,44H72A12,12,0,0,0,60,56V76H40A12,12,0,0,0,28,88v23.9h0V200a12,12,0,0,0,12,12H184a12,12,0,0,0,12-12V180h20a12,12,0,0,0,12-12V56A12,12,0,0,0,216,44ZM40,84H184a4,4,0,0,1,4,4v20H36V88A4,4,0,0,1,40,84ZM188,200a4,4,0,0,1-4,4H40a4,4,0,0,1-4-4V116H188Zm32-32a4,4,0,0,1-4,4H196V88a12,12,0,0,0-12-12H68V56a4,4,0,0,1,4-4H216a4,4,0,0,1,4,4Z"/></svg>
